X:140
T:RVW2/2/140 Lord Bateman
C:Mr. Mitchell (about 60), formerly of Combe Bissett, now in Salisbury Union, 1 September 1904
L:1/8
Q:1/4=90
M:3/4
I:linebreak $
K:G
"^(Editorial suggestion " D | GG"^(a)" (3(E2 F2) G2 | GE (ED) z D | GF G3 (A/B/) | 
w: Lord|Bate- man was _ a|no- ble lord _ a|no- ble lord of _|
cd A2 z"^(b)" d |$ dd A3 B/c/ | cA GF z G | AB A2 GE | DD D3 ||$ D | GG"^(a) var." D3 D | 
w: high de- gree *|||||||
GE ED z D | GF G3 A/B/ | cd A2 z"^(b) var." B/c/ |$ dd A3 B/c/ | cA GF z G | AB A2 GE | DD D3 |] 
w: |||||||



